assets/svg/arrow-right-white.svg

<svg height="11" viewBox="0 0 16 11" width="16" xmlns="http://www.w3.org/2000/svg"><path d="m12.676207 6.15772155h-12.676207v-1.29636243h12.6952877l-3.94469248-3.94469245.91666667-.91666667 5.50000001 5.5-.9166667.91666667-4.58333331 4.58333333-.91666667-.9166667z" fill="#fff" fill-rule="evenodd"/></svg>

<?xml version="1.0" encoding="UTF-8"?>
<svg width="16px" height="11px" viewBox="0 0 16 11" version="1.1" xmlns="http://www.w3.org/2000/svg" xmlns:xlink="http://www.w3.org/1999/xlink">
    <!-- Generator: Sketch 48.2 (47327) - http://www.bohemiancoding.com/sketch -->
    <title>Combined Shape</title>
    <desc>Created with Sketch.</desc>
    <defs></defs>
    <g id="Modals" stroke="none" stroke-width="1" fill="none" fill-rule="evenodd">
        <path d="M12.676207,6.15772155 L0,6.15772155 L0,4.86135912 L12.6952877,4.86135912 L8.75059522,0.916666667 L9.66726189,-2.55351296e-15 L15.1672619,5.5 L14.2505952,6.41666667 L9.66726189,11 L8.75059522,10.0833333 L12.676207,6.15772155 Z" id="Combined-Shape" fill="#FFFFFF"></path>
    </g>
</svg>
